!!!OTL: MARIA WOLLTE WANDERN GEHN
!!!ARE: Europa, Mitteleuropa, Deutschland, Hessen, Hanau; Fulda
!!!SCT: E2058B
!!!YEM: Copyright 1995, estate of Helmut Schaffrath.
**kern
*ICvox
*Ivox
*M4/4
*k[b-]
*F:
{4c
=1
4f
4a
4g
8cc
8b-
=2
4.a
8g
4f}
{8a
8cc
=3
4b-
4b-
4a
8cc
8b-
=4
2g
4r}
{8cc
8b-
=5
4a
4a
8g
8f
4g
=6
4f
4g
4cc}
{4a
=7
4cc
4a
8cc
8b-
4g
=8
1f}
==
!!!AGN: geistlich, Marien - Lied, Legende
!!!ONB: ESAC (Essen Associative Code) Database: ERK3
!!!AMT: simple quadruple
!!!AIN: vox
!!!EED: Helmut Schaffrath
!!!EEV: 1.0
*-
